src/assets/outline/Mouse.svg

<svg width="24" height="24" viewBox="0 0 24 24"  xmlns="http://www.w3.org/2000/svg">
<path d="M11.31 18.0002C11.3 18.0002 11.3 18.0002 11.29 18.0002C10.25 17.9902 9.36999 17.3402 9.05999 16.3502L7.10999 10.0702C6.84999 9.22022 7.06999 8.31021 7.69999 7.69021C8.31999 7.07021 9.21999 6.8502 10.06 7.1102L16.35 9.06021C17.35 9.37021 18 10.2502 18.01 11.2902C18.02 12.3302 17.39 13.2102 16.4 13.5402L14.68 14.1202C14.42 14.2102 14.23 14.4002 14.14 14.6502L13.55 16.3802C13.22 17.3702 12.34 18.0002 11.31 18.0002ZM9.33998 8.50021C9.03998 8.50021 8.83999 8.66021 8.74999 8.75021C8.51999 8.98021 8.43998 9.31021 8.53998 9.62021L10.49 15.9002C10.66 16.4502 11.15 16.5002 11.3 16.5002C11.42 16.4902 11.93 16.4602 12.11 15.9102L12.7 14.1802C12.93 13.4902 13.49 12.9302 14.18 12.7002L15.9 12.1202C15.9 12.1202 15.9 12.1202 15.91 12.1202C16.46 11.9402 16.5 11.4502 16.5 11.3102C16.5 11.1602 16.45 10.6702 15.9 10.5002L9.60999 8.5502C9.50999 8.5102 9.41998 8.50021 9.33998 8.50021Z" />
<path d="M12 22.75C6.07 22.75 1.25 17.93 1.25 12C1.25 6.07 6.07 1.25 12 1.25C17.93 1.25 22.75 6.07 22.75 12C22.75 17.93 17.93 22.75 12 22.75ZM12 2.75C6.9 2.75 2.75 6.9 2.75 12C2.75 17.1 6.9 21.25 12 21.25C17.1 21.25 21.25 17.1 21.25 12C21.25 6.9 17.1 2.75 12 2.75Z" />
</svg>

<?xml version="1.0" encoding="UTF-8"?>
<svg width="24" height="24" viewBox="0 0 24 24" xmlns="http://www.w3.org/2000/svg">
 <path d="m11.31 18h-0.02c-1.04-0.01-1.92-0.66-2.23-1.65l-1.95-6.28c-0.26-0.84998-0.04-1.76 0.59-2.38 0.62-0.62 1.52-0.84001 2.36-0.58001l6.29 1.95c1 0.31 1.65 1.19 1.66 2.23s-0.62 1.92-1.61 2.25l-1.72 0.58c-0.26 0.09-0.45 0.28-0.54 0.53l-0.59 1.73c-0.33 0.99-1.21 1.62-2.24 1.62zm-1.97-9.5c-0.3 0-0.49999 0.16-0.58999 0.25-0.23 0.23-0.31001 0.56-0.21001 0.87l1.95 6.28c0.17 0.55 0.66 0.6 0.81 0.6 0.12-0.01 0.63-0.04 0.81-0.59l0.59-1.73c0.23-0.69 0.79-1.25 1.48-1.48l1.72-0.58h0.01c0.55-0.18 0.59-0.67 0.59-0.81 0-0.15-0.05-0.64-0.6-0.81l-6.29-1.95c-0.1-0.04-0.19001-0.04999-0.27001-0.04999z"/>
 <path d="m12 22.75c-5.93 0-10.75-4.82-10.75-10.75s4.82-10.75 10.75-10.75 10.75 4.82 10.75 10.75-4.82 10.75-10.75 10.75zm0-20c-5.1 0-9.25 4.15-9.25 9.25s4.15 9.25 9.25 9.25 9.25-4.15 9.25-9.25-4.15-9.25-9.25-9.25z"/>
</svg>
